svg/fluentui-system-icons/ic_fluent_bookmark_16_filled.svg

<svg width="16" height="16" viewBox="0 0 16 16" fill="none" xmlns="http://www.w3.org/2000/svg">
<path d="M3.7796 13.9178C3.44735 14.1396 3.00195 13.9015 3.00195 13.5019V4.01076C3.00195 2.90759 3.8952 2.01274 4.99837 2.01076L10.9984 2C12.1029 1.99803 13 2.89186 13.002 3.99643V13.5019C13.002 13.9015 12.5566 14.1396 12.2243 13.9178L8.00195 11.0985L3.7796 13.9178Z" fill="#212121"/>
</svg>

<svg xmlns="http://www.w3.org/2000/svg" width="16" height="16"><path d="M3.78 13.918a.5.5 0 0 1-.778-.416V4.01a2 2 0 0 1 1.996-2l6-.011a2 2 0 0 1 2.004 1.996v9.506a.5.5 0 0 1-.778.416l-4.222-2.82-4.222 2.82Z"/></svg>
